assets/1. 1-F/Construction/Color/Construction-color.svg

<svg width="100%" height="100%" viewBox="0 0 32 32" fill="none" xmlns="http://www.w3.org/2000/svg">
<g filter="url(#filter0_ii_18_12057)">
<path d="M3 9C3 8.44772 3.44772 8 4 8H28C28.5523 8 29 8.44772 29 9V20C29 20.5523 28.5523 21 28 21H4C3.44772 21 3 20.5523 3 20V9Z" fill="url(#paint0_linear_18_12057)"/>
</g>
<path d="M3 9C3 8.44772 3.44772 8 4 8H28C28.5523 8 29 8.44772 29 9V20C29 20.5523 28.5523 21 28 21H4C3.44772 21 3 20.5523 3 20V9Z" fill="url(#paint1_linear_18_12057)"/>
<path d="M3 9C3 8.44772 3.44772 8 4 8H28C28.5523 8 29 8.44772 29 9V20C29 20.5523 28.5523 21 28 21H4C3.44772 21 3 20.5523 3 20V9Z" fill="url(#paint2_radial_18_12057)"/>
<path fill-rule="evenodd" clip-rule="evenodd" d="M24.4748 20.9999H19.525L29 11.5249V16.4746L24.4748 20.9999Z" fill="url(#paint3_linear_18_12057)"/>
<path fill-rule="evenodd" clip-rule="evenodd" d="M24.4748 20.9999H19.525L29 11.5249V16.4746L24.4748 20.9999Z" fill="url(#paint4_linear_18_12057)"/>
<path fill-rule="evenodd" clip-rule="evenodd" d="M24.4748 20.9999H19.525L29 11.5249V16.4746L24.4748 20.9999Z" fill="url(#paint5_linear_18_12057)"/>
<path fill-rule="evenodd" clip-rule="evenodd" d="M14.4748 21H9.52502L22.525 8H27.4748L14.4748 21Z" fill="url(#paint6_linear_18_12057)"/>
<path fill-rule="evenodd" clip-rule="evenodd" d="M14.4748 21H9.52502L22.525 8H27.4748L14.4748 21Z" fill="url(#paint7_linear_18_12057)"/>
<path fill-rule="evenodd" clip-rule="evenodd" d="M14.4748 21H9.52502L22.525 8H27.4748L14.4748 21Z" fill="url(#paint8_linear_18_12057)"/>
<path fill-rule="evenodd" clip-rule="evenodd" d="M4.47476 21H4C3.44772 21 3 20.5523 3 20V17.525L12.525 8H17.4748L4.47476 21Z" fill="url(#paint9_linear_18_12057)"/>
<path fill-rule="evenodd" clip-rule="evenodd" d="M4.47476 21H4C3.44772 21 3 20.5523 3 20V17.525L12.525 8H17.4748L4.47476 21Z" fill="url(#paint10_linear_18_12057)"/>
<path fill-rule="evenodd" clip-rule="evenodd" d="M4.47476 21H4C3.44772 21 3 20.5523 3 20V17.525L12.525 8H17.4748L4.47476 21Z" fill="url(#paint11_linear_18_12057)"/>
<path fill-rule="evenodd" clip-rule="evenodd" d="M4.47476 21H4C3.44772 21 3 20.5523 3 20V17.525L12.525 8H17.4748L4.47476 21Z" fill="url(#paint12_linear_18_12057)"/>
<path fill-rule="evenodd" clip-rule="evenodd" d="M7.47476 8H4C3.44772 8 3 8.44772 3 9V12.4748L7.47476 8Z" fill="url(#paint13_linear_18_12057)"/>
<path fill-rule="evenodd" clip-rule="evenodd" d="M7.47476 8H4C3.44772 8 3 8.44772 3 9V12.4748L7.47476 8Z" fill="url(#paint14_linear_18_12057)"/>
<path fill-rule="evenodd" clip-rule="evenodd" d="M7.47476 8H4C3.44772 8 3 8.44772 3 9V12.4748L7.47476 8Z" fill="url(#paint15_linear_18_12057)"/>
<path fill-rule="evenodd" clip-rule="evenodd" d="M26 21H24V30H26V21Z" fill="url(#paint16_linear_18_12057)"/>
<path fill-rule="evenodd" clip-rule="evenodd" d="M26 21H24V30H26V21Z" fill="url(#paint17_radial_18_12057)"/>
<path fill-rule="evenodd" clip-rule="evenodd" d="M8 21H6V30H8V21Z" fill="url(#paint18_linear_18_12057)"/>
<path fill-rule="evenodd" clip-rule="evenodd" d="M8 21H6V30H8V21Z" fill="url(#paint19_radial_18_12057)"/>
<path d="M6 7.5C6 6.67157 6.67157 6 7.5 6C8.32843 6 9 6.67157 9 7.5V8H6V7.5Z" fill="url(#paint20_linear_18_12057)"/>
<path d="M23 7.5C23 6.67157 23.6716 6 24.5 6C25.3284 6 26 6.67157 26 7.5V8H23V7.5Z" fill="url(#paint21_linear_18_12057)"/>
<g filter="url(#filter1_f_18_12057)">
<rect x="7.10938" y="21.5" width="0.47476" height="8" rx="0.23738" fill="#DFD0E9"/>
</g>
<g filter="url(#filter2_f_18_12057)">
<rect x="25" y="21.5" width="0.47476" height="8" rx="0.23738" fill="#DFD0E9"/>
</g>
<defs>
<filter id="filter0_ii_18_12057" x="2.5" y="7.5" width="27" height="14" filterUnits="userSpaceOnUse" color-interpolation-filters="sRGB">
<feFlood flood-opacity="0" result="BackgroundImageFix"/>
<feBlend mode="normal" in="SourceGraphic" in2="BackgroundImageFix" result="shape"/>
<feColorMatrix in="SourceAlpha" type="matrix" values="0 0 0 0 0 0 0 0 0 0 0 0 0 0 0 0 0 0 127 0" result="hardAlpha"/>
<feOffset dx="0.5" dy="-0.5"/>
<feGaussianBlur stdDeviation="0.375"/>
<feComposite in2="hardAlpha" operator="arithmetic" k2="-1" k3="1"/>
<feColorMatrix type="matrix" values="0 0 0 0 0.831373 0 0 0 0 0.494118 0 0 0 0 0.282353 0 0 0 1 0"/>
<feBlend mode="normal" in2="shape" result="effect1_innerShadow_18_12057"/>
<feColorMatrix in="SourceAlpha" type="matrix" values="0 0 0 0 0 0 0 0 0 0 0 0 0 0 0 0 0 0 127 0" result="hardAlpha"/>
<feOffset dx="-0.5" dy="0.5"/>
<feGaussianBlur stdDeviation="0.375"/>
<feComposite in2="hardAlpha" operator="arithmetic" k2="-1" k3="1"/>
<feColorMatrix type="matrix" values="0 0 0 0 1 0 0 0 0 1 0 0 0 0 0.415686 0 0 0 1 0"/>
<feBlend mode="normal" in2="effect1_innerShadow_18_12057" result="effect2_innerShadow_18_12057"/>
</filter>
<filter id="filter1_f_18_12057" x="6.45938" y="20.85" width="1.77473" height="9.3" filterUnits="userSpaceOnUse" color-interpolation-filters="sRGB">
<feFlood flood-opacity="0" result="BackgroundImageFix"/>
<feBlend mode="normal" in="SourceGraphic" in2="BackgroundImageFix" result="shape"/>
<feGaussianBlur stdDeviation="0.325" result="effect1_foregroundBlur_18_12057"/>
</filter>
<filter id="filter2_f_18_12057" x="24.35" y="20.85" width="1.77473" height="9.3" filterUnits="userSpaceOnUse" color-interpolation-filters="sRGB">
<feFlood flood-opacity="0" result="BackgroundImageFix"/>
<feBlend mode="normal" in="SourceGraphic" in2="BackgroundImageFix" result="shape"/>
<feGaussianBlur stdDeviation="0.325" result="effect1_foregroundBlur_18_12057"/>
</filter>
<linearGradient id="paint0_linear_18_12057" x1="25.8457" y1="9.98514" x2="8.5" y2="18.625" gradientUnits="userSpaceOnUse">
<stop stop-color="#F7D142"/>
<stop offset="1" stop-color="#FCB545"/>
</linearGradient>
<linearGradient id="paint1_linear_18_12057" x1="3" y1="14.0109" x2="3.79" y2="14.0109" gradientUnits="userSpaceOnUse">
<stop stop-color="#A57C4B"/>
<stop offset="1" stop-color="#A57C4B" stop-opacity="0"/>
</linearGradient>
<radialGradient id="paint2_radial_18_12057" cx="0" cy="0" r="1" gradientUnits="userSpaceOnUse" gradientTransform="translate(4.68831 8) scale(12.0629 1.90436)">
<stop offset="0.135638" stop-color="#FBBC43"/>
<stop offset="1" stop-color="#FBBC43" stop-opacity="0"/>
</radialGradient>
<linearGradient id="paint3_linear_18_12057" x1="27.6071" y1="11.5249" x2="18.4096" y2="17.9823" gradientUnits="userSpaceOnUse">
<stop stop-color="#353138"/>
<stop offset="1" stop-color="#503B62"/>
</linearGradient>
<linearGradient id="paint4_linear_18_12057" x1="22.0781" y1="20.9999" x2="22.0781" y2="20.3116" gradientUnits="userSpaceOnUse">
<stop stop-color="#4B2867"/>
<stop offset="1" stop-color="#4B2867" stop-opacity="0"/>
</linearGradient>
<linearGradient id="paint5_linear_18_12057" x1="29" y1="14.4905" x2="25.7434" y2="14.4905" gradientUnits="userSpaceOnUse">
<stop stop-color="#353139"/>
<stop offset="0.166461" stop-color="#413D46"/>
<stop offset="0.455618" stop-color="#413D46" stop-opacity="0"/>
</linearGradient>
<linearGradient id="paint6_linear_18_12057" x1="24.836" y1="8" x2="11.4256" y2="21" gradientUnits="userSpaceOnUse">
<stop stop-color="#353138"/>
<stop offset="1" stop-color="#503B62"/>
</linearGradient>
<linearGradient id="paint7_linear_18_12057" x1="14.3616" y1="21" x2="14.3616" y2="20.0557" gradientUnits="userSpaceOnUse">
<stop stop-color="#4B2867"/>
<stop offset="1" stop-color="#4B2867" stop-opacity="0"/>
</linearGradient>
<linearGradient id="paint8_linear_18_12057" x1="23.3427" y1="8" x2="23.3427" y2="12.0689" gradientUnits="userSpaceOnUse">
<stop stop-color="#353139"/>
<stop offset="0.166461" stop-color="#413D46"/>
<stop offset="0.422206" stop-color="#413D46" stop-opacity="0"/>
</linearGradient>
<linearGradient id="paint9_linear_18_12057" x1="15.3468" y1="8" x2="2.32672" y2="18.1782" gradientUnits="userSpaceOnUse">
<stop stop-color="#353138"/>
<stop offset="1" stop-color="#503B62"/>
</linearGradient>
<linearGradient id="paint10_linear_18_12057" x1="6.90025" y1="21" x2="6.90025" y2="20.0557" gradientUnits="userSpaceOnUse">
<stop stop-color="#4B2867"/>
<stop offset="1" stop-color="#4B2867" stop-opacity="0"/>
</linearGradient>
<linearGradient id="paint11_linear_18_12057" x1="14.1427" y1="8" x2="14.1427" y2="12.0689" gradientUnits="userSpaceOnUse">
<stop stop-color="#353139"/>
<stop offset="0.166461" stop-color="#413D46"/>
<stop offset="0.422206" stop-color="#413D46" stop-opacity="0"/>
</linearGradient>
<linearGradient id="paint12_linear_18_12057" x1="3" y1="15.1145" x2="3.75" y2="15.1145" gradientUnits="userSpaceOnUse">
<stop stop-color="#2F2C32"/>
<stop offset="1" stop-color="#2F2C32" stop-opacity="0"/>
</linearGradient>
<linearGradient id="paint13_linear_18_12057" x1="6.81693" y1="8" x2="2.47324" y2="11.0496" gradientUnits="userSpaceOnUse">
<stop stop-color="#353138"/>
<stop offset="1" stop-color="#503B62"/>
</linearGradient>
<linearGradient id="paint14_linear_18_12057" x1="6.44467" y1="8" x2="6.44467" y2="9.40056" gradientUnits="userSpaceOnUse">
<stop stop-color="#353139"/>
<stop offset="0.166461" stop-color="#413D46"/>
<stop offset="0.422206" stop-color="#413D46" stop-opacity="0"/>
</linearGradient>
<linearGradient id="paint15_linear_18_12057" x1="3" y1="10.4489" x2="4" y2="10.4489" gradientUnits="userSpaceOnUse">
<stop stop-color="#2F2C32"/>
<stop offset="1" stop-color="#2F2C32" stop-opacity="0"/>
</linearGradient>
<linearGradient id="paint16_linear_18_12057" x1="24" y1="23.9375" x2="25" y2="23.9375" gradientUnits="userSpaceOnUse">
<stop stop-color="#857C8C"/>
<stop offset="1" stop-color="#B9A7C4"/>
</linearGradient>
<radialGradient id="paint17_radial_18_12057" cx="0" cy="0" r="1" gradientUnits="userSpaceOnUse" gradientTransform="translate(25 29.5937) rotate(-90) scale(8.79687 5.25369)">
<stop offset="0.912727" stop-color="#7E5E91" stop-opacity="0"/>
<stop offset="0.992895" stop-color="#7E5E91"/>
</radialGradient>
<linearGradient id="paint18_linear_18_12057" x1="6" y1="23.9375" x2="7" y2="23.9375" gradientUnits="userSpaceOnUse">
<stop stop-color="#857C8C"/>
<stop offset="1" stop-color="#B9A7C4"/>
</linearGradient>
<radialGradient id="paint19_radial_18_12057" cx="0" cy="0" r="1" gradientUnits="userSpaceOnUse" gradientTransform="translate(7 29.5937) rotate(-90) scale(8.79687 5.25369)">
<stop offset="0.912727" stop-color="#7E5E91" stop-opacity="0"/>
<stop offset="0.992895" stop-color="#7E5E91"/>
</radialGradient>
<linearGradient id="paint20_linear_18_12057" x1="7.5" y1="6" x2="7.5" y2="8" gradientUnits="userSpaceOnUse">
<stop offset="0.5625" stop-color="#CB1E72"/>
<stop offset="1" stop-color="#E61C31"/>
</linearGradient>
<linearGradient id="paint21_linear_18_12057" x1="24.5" y1="6" x2="24.5" y2="8" gradientUnits="userSpaceOnUse">
<stop offset="0.5625" stop-color="#CB1E72"/>
<stop offset="1" stop-color="#E61C31"/>
</linearGradient>
</defs>
</svg>

<svg width="100%" height="100%" viewBox="0 0 32 32" xmlns="http://www.w3.org/2000/svg"><g filter="url(#a)"><path fill="url(#b)" d="M3 9a1 1 0 0 1 1-1h24a1 1 0 0 1 1 1v11a1 1 0 0 1-1 1H4a1 1 0 0 1-1-1z"/></g><path fill="url(#c)" d="M3 9a1 1 0 0 1 1-1h24a1 1 0 0 1 1 1v11a1 1 0 0 1-1 1H4a1 1 0 0 1-1-1z"/><path fill="url(#d)" d="M3 9a1 1 0 0 1 1-1h24a1 1 0 0 1 1 1v11a1 1 0 0 1-1 1H4a1 1 0 0 1-1-1z"/><path fill="url(#e)" fill-rule="evenodd" d="M24.475 21h-4.95L29 11.525v4.95z" clip-rule="evenodd"/><path fill="url(#f)" fill-rule="evenodd" d="M24.475 21h-4.95L29 11.525v4.95z" clip-rule="evenodd"/><path fill="url(#g)" fill-rule="evenodd" d="M24.475 21h-4.95L29 11.525v4.95z" clip-rule="evenodd"/><path fill="url(#h)" fill-rule="evenodd" d="M14.475 21h-4.95l13-13h4.95z" clip-rule="evenodd"/><path fill="url(#i)" fill-rule="evenodd" d="M14.475 21h-4.95l13-13h4.95z" clip-rule="evenodd"/><path fill="url(#j)" fill-rule="evenodd" d="M14.475 21h-4.95l13-13h4.95z" clip-rule="evenodd"/><path fill="url(#k)" fill-rule="evenodd" d="M4.475 21H4a1 1 0 0 1-1-1v-2.475L12.525 8h4.95z" clip-rule="evenodd"/><path fill="url(#l)" fill-rule="evenodd" d="M4.475 21H4a1 1 0 0 1-1-1v-2.475L12.525 8h4.95z" clip-rule="evenodd"/><path fill="url(#m)" fill-rule="evenodd" d="M4.475 21H4a1 1 0 0 1-1-1v-2.475L12.525 8h4.95z" clip-rule="evenodd"/><path fill="url(#n)" fill-rule="evenodd" d="M4.475 21H4a1 1 0 0 1-1-1v-2.475L12.525 8h4.95z" clip-rule="evenodd"/><path fill="url(#o)" fill-rule="evenodd" d="M7.475 8H4a1 1 0 0 0-1 1v3.475z" clip-rule="evenodd"/><path fill="url(#p)" fill-rule="evenodd" d="M7.475 8H4a1 1 0 0 0-1 1v3.475z" clip-rule="evenodd"/><path fill="url(#q)" fill-rule="evenodd" d="M7.475 8H4a1 1 0 0 0-1 1v3.475z" clip-rule="evenodd"/><path fill="url(#r)" fill-rule="evenodd" d="M26 21h-2v9h2z" clip-rule="evenodd"/><path fill="url(#s)" fill-rule="evenodd" d="M26 21h-2v9h2z" clip-rule="evenodd"/><path fill="url(#t)" fill-rule="evenodd" d="M8 21H6v9h2z" clip-rule="evenodd"/><path fill="url(#u)" fill-rule="evenodd" d="M8 21H6v9h2z" clip-rule="evenodd"/><path fill="url(#v)" d="M6 7.5a1.5 1.5 0 1 1 3 0V8H6z"/><path fill="url(#w)" d="M23 7.5a1.5 1.5 0 0 1 3 0V8h-3z"/><g filter="url(#x)"><rect width=".475" height="8" x="7.109" y="21.5" fill="#DFD0E9" rx=".237"/></g><g filter="url(#y)"><rect width=".475" height="8" x="25" y="21.5" fill="#DFD0E9" rx=".237"/></g><defs><linearGradient id="b" x1="25.846" x2="8.5" y1="9.985" y2="18.625" gradientUnits="userSpaceOnUse"><stop stop-color="#F7D142"/><stop offset="1" stop-color="#FCB545"/></linearGradient><linearGradient id="c" x1="3" x2="3.79" y1="14.011" y2="14.011" gradientUnits="userSpaceOnUse"><stop stop-color="#A57C4B"/><stop offset="1" stop-color="#A57C4B" stop-opacity="0"/></linearGradient><linearGradient id="e" x1="27.607" x2="18.41" y1="11.525" y2="17.982" gradientUnits="userSpaceOnUse"><stop stop-color="#353138"/><stop offset="1" stop-color="#503B62"/></linearGradient><linearGradient id="f" x1="22.078" x2="22.078" y1="21" y2="20.312" gradientUnits="userSpaceOnUse"><stop stop-color="#4B2867"/><stop offset="1" stop-color="#4B2867" stop-opacity="0"/></linearGradient><linearGradient id="g" x1="29" x2="25.743" y1="14.491" y2="14.491" gradientUnits="userSpaceOnUse"><stop stop-color="#353139"/><stop offset=".166" stop-color="#413D46"/><stop offset=".456" stop-color="#413D46" stop-opacity="0"/></linearGradient><linearGradient id="h" x1="24.836" x2="11.426" y1="8" y2="21" gradientUnits="userSpaceOnUse"><stop stop-color="#353138"/><stop offset="1" stop-color="#503B62"/></linearGradient><linearGradient id="i" x1="14.362" x2="14.362" y1="21" y2="20.056" gradientUnits="userSpaceOnUse"><stop stop-color="#4B2867"/><stop offset="1" stop-color="#4B2867" stop-opacity="0"/></linearGradient><linearGradient id="j" x1="23.343" x2="23.343" y1="8" y2="12.069" gradientUnits="userSpaceOnUse"><stop stop-color="#353139"/><stop offset=".166" stop-color="#413D46"/><stop offset=".422" stop-color="#413D46" stop-opacity="0"/></linearGradient><linearGradient id="k" x1="15.347" x2="2.327" y1="8" y2="18.178" gradientUnits="userSpaceOnUse"><stop stop-color="#353138"/><stop offset="1" stop-color="#503B62"/></linearGradient><linearGradient id="l" x1="6.9" x2="6.9" y1="21" y2="20.056" gradientUnits="userSpaceOnUse"><stop stop-color="#4B2867"/><stop offset="1" stop-color="#4B2867" stop-opacity="0"/></linearGradient><linearGradient id="m" x1="14.143" x2="14.143" y1="8" y2="12.069" gradientUnits="userSpaceOnUse"><stop stop-color="#353139"/><stop offset=".166" stop-color="#413D46"/><stop offset=".422" stop-color="#413D46" stop-opacity="0"/></linearGradient><linearGradient id="n" x1="3" x2="3.75" y1="15.114" y2="15.114" gradientUnits="userSpaceOnUse"><stop stop-color="#2F2C32"/><stop offset="1" stop-color="#2F2C32" stop-opacity="0"/></linearGradient><linearGradient id="o" x1="6.817" x2="2.473" y1="8" y2="11.05" gradientUnits="userSpaceOnUse"><stop stop-color="#353138"/><stop offset="1" stop-color="#503B62"/></linearGradient><linearGradient id="p" x1="6.445" x2="6.445" y1="8" y2="9.401" gradientUnits="userSpaceOnUse"><stop stop-color="#353139"/><stop offset=".166" stop-color="#413D46"/><stop offset=".422" stop-color="#413D46" stop-opacity="0"/></linearGradient><linearGradient id="q" x1="3" x2="4" y1="10.449" y2="10.449" gradientUnits="userSpaceOnUse"><stop stop-color="#2F2C32"/><stop offset="1" stop-color="#2F2C32" stop-opacity="0"/></linearGradient><linearGradient id="r" x1="24" x2="25" y1="23.938" y2="23.938" gradientUnits="userSpaceOnUse"><stop stop-color="#857C8C"/><stop offset="1" stop-color="#B9A7C4"/></linearGradient><linearGradient id="t" x1="6" x2="7" y1="23.938" y2="23.938" gradientUnits="userSpaceOnUse"><stop stop-color="#857C8C"/><stop offset="1" stop-color="#B9A7C4"/></linearGradient><linearGradient id="v" x1="7.5" x2="7.5" y1="6" y2="8" gradientUnits="userSpaceOnUse"><stop offset=".563" stop-color="#CB1E72"/><stop offset="1" stop-color="#E61C31"/></linearGradient><linearGradient id="w" x1="24.5" x2="24.5" y1="6" y2="8" gradientUnits="userSpaceOnUse"><stop offset=".563" stop-color="#CB1E72"/><stop offset="1" stop-color="#E61C31"/></linearGradient><radialGradient id="d" cx="0" cy="0" r="1" gradientTransform="matrix(12.0629 0 0 1.90436 4.688 8)" gradientUnits="userSpaceOnUse"><stop offset=".136" stop-color="#FBBC43"/><stop offset="1" stop-color="#FBBC43" stop-opacity="0"/></radialGradient><radialGradient id="s" cx="0" cy="0" r="1" gradientTransform="matrix(0 -8.79687 5.25369 0 25 29.594)" gradientUnits="userSpaceOnUse"><stop offset=".913" stop-color="#7E5E91" stop-opacity="0"/><stop offset=".993" stop-color="#7E5E91"/></radialGradient><radialGradient id="u" cx="0" cy="0" r="1" gradientTransform="matrix(0 -8.79687 5.25369 0 7 29.594)" gradientUnits="userSpaceOnUse"><stop offset=".913" stop-color="#7E5E91" stop-opacity="0"/><stop offset=".993" stop-color="#7E5E91"/></radialGradient><filter id="a" width="27" height="14" x="2.5" y="7.5" color-interpolation-filters="sRGB" filterUnits="userSpaceOnUse"><feFlood flood-opacity="0" result="BackgroundImageFix"/><feBlend in="SourceGraphic" in2="BackgroundImageFix" result="shape"/><feColorMatrix in="SourceAlpha" result="hardAlpha" values="0 0 0 0 0 0 0 0 0 0 0 0 0 0 0 0 0 0 127 0"/><feOffset dx=".5" dy="-.5"/><feGaussianBlur stdDeviation=".375"/><feComposite in2="hardAlpha" k2="-1" k3="1" operator="arithmetic"/><feColorMatrix values="0 0 0 0 0.831373 0 0 0 0 0.494118 0 0 0 0 0.282353 0 0 0 1 0"/><feBlend in2="shape" result="effect1_innerShadow_18_12057"/><feColorMatrix in="SourceAlpha" result="hardAlpha" values="0 0 0 0 0 0 0 0 0 0 0 0 0 0 0 0 0 0 127 0"/><feOffset dx="-.5" dy=".5"/><feGaussianBlur stdDeviation=".375"/><feComposite in2="hardAlpha" k2="-1" k3="1" operator="arithmetic"/><feColorMatrix values="0 0 0 0 1 0 0 0 0 1 0 0 0 0 0.415686 0 0 0 1 0"/><feBlend in2="effect1_innerShadow_18_12057" result="effect2_innerShadow_18_12057"/></filter><filter id="x" width="1.775" height="9.3" x="6.459" y="20.85" color-interpolation-filters="sRGB" filterUnits="userSpaceOnUse"><feFlood flood-opacity="0" result="BackgroundImageFix"/><feBlend in="SourceGraphic" in2="BackgroundImageFix" result="shape"/><feGaussianBlur result="effect1_foregroundBlur_18_12057" stdDeviation=".325"/></filter><filter id="y" width="1.775" height="9.3" x="24.35" y="20.85" color-interpolation-filters="sRGB" filterUnits="userSpaceOnUse"><feFlood flood-opacity="0" result="BackgroundImageFix"/><feBlend in="SourceGraphic" in2="BackgroundImageFix" result="shape"/><feGaussianBlur result="effect1_foregroundBlur_18_12057" stdDeviation=".325"/></filter></defs></svg>
